!!!COM: Corelli, Arcangelo
!!!OPR: Sonata da chiesa
!!!OPS: 3
!!!ONM: 10
!!!OMV: 2
!!!OMD: Allegro
**kern	**fb	**kern	**kern	**kern
*part4	*part4	*part3	*part2	*part1
*staff4	*	*staff3	*staff2	*staff1
*I"Organo	*	*I"Violone	*I"Violino II	*I"Violino I
*clefF4	*	*clefF4	*clefG2	*clefG2
*k[]	*	*k[]	*k[]	*k[]
*M4/4	*	*M4/4	*M4/4	*M4/4
*met(c)	*	*met(c)	*met(c)	*met(c)
=1	=1	=1	=1	=1
1r	.	1r	1r	8r
.	.	.	.	8eeL
.	.	.	.	8ee
.	.	.	.	8eeJ
.	.	.	.	8ffL
.	.	.	.	8ffJ
.	.	.	.	8ffL
.	.	.	.	16ggL
.	.	.	.	16ffJJ
=	=	=	=	=
1r	.	1r	1r	8eeL
.	.	.	.	8aaJ
.	.	.	.	8aaL
.	.	.	.	16bbL
.	.	.	.	16aaJJ
.	.	.	.	8gg#XL
.	.	.	.	8aaJ
.	.	.	.	8.aaL
.	.	.	.	16gg#Jk
=	=	=	=	=
1r	.	1r	8r	8aaL
.	.	.	8aL	8ee
.	.	.	8a	8cc
.	.	.	8aJ	8aJ
.	.	.	8ccL	8eeL
.	.	.	8ccJ	8eeJ
.	.	.	8ccL	8eeL
.	.	.	16ddL	16ff#XL
.	.	.	16ccJJ	16eeJJ
=	=	=	=	=
1r	.	1r	8bL	8dd#XL
.	.	.	8eeJ	8ggJ
.	.	.	8eeL	8ggL
.	.	.	16ff#XL	(16aaL
.	.	.	16eeJJ	16ggJJ)
.	.	.	8dd#XL	8ff#XL
.	.	.	8eeJ	8ggJ
.	.	.	8.eeL	[8.ff#L
.	.	.	16dd#Jk	16ff#Jk]
=	=	=	=	=
1r	.	1r	8eeL	8eeL
.	.	.	8gg#X	8ee
.	.	.	8gg#	8ee
.	.	.	8gg#J	8eeJ
.	.	.	8aaL	8ffniL
.	.	.	8aaJ	8ffJ
.	.	.	8aaL	8ffL
.	.	.	(16bbL	(16ggL
.	.	.	16aaJJ)	16ffJJ)
=	=	=	=	=
8r	.	8r	8gg#XL	8eeL
8EL	#	8EL	8ee	8g#X
8E	.	8E	8ee	8g#
8EJ	.	8EJ	8eeJ	8g#J
8FL	7	8FL	8eeL	8aL
8FJ	.	8FJ	8a	8aJ
8FL	6	8FL	8dd	8aL
16GL	.	16GL	8ddJ	(16bL
16FJJ	.	16FJJ	.	16aJJ)
=	=	=	=	=
8EL	7 #	8EL	8ddL	8g#XL
8AA	.	8AA	8ccJ	8eeJ
8A	.	8A	8ccL	8eeL
8AJ	.	8AJ	(16ddL	(16ffL
.	.	.	16ccJJ)	16eeJJ)
4A	4 2	4A	8bL	8ddL
.	.	.	8b	8ddJ
4G#X	6 5	4G#X	8b	8ddL
.	.	.	8bJ	(16eeL
.	.	.	.	16ddJJ)
=	=	=	=	=
8AL	9	8AL	8bL	8ccL
8AA	.	8AA	8eJ	8ccJ
8C	6	8C	8eeL	8ccL
8DJ	.	8DJ	(16ddL	(16bL
.	.	.	16ccJJ)	16aJJ)
8EL	#	8EL	8bL	8g#XL
8D	7	8D	8ccJ	8aJ
8E	5 4	8E	8.bL	8.aL
8EEJ	#	8EEJ	.	.
.	.	.	16bJk	16g#Jk
=	=	=	=	=
8AAL	5	8AAL	8aL	8aL
8A	.	8A	8cc	8ff
8A	6	8A	8cc	8ff
8AJ	.	8AJ	8ccJ	8ffJ
8GL	7	8GL	8bL	8ffL
8GJ	.	8GJ	8bJ	8ee
8GL	6	8GL	8bL	8ee
16AL	.	16AL	(16ccL	8eeJ
16GJJ	.	16GJJ	16bJJ)	.
=	=	=	=	=
8FL	7_	8FL	8aL	8eeL
8FJ	.	8FJ	8aa	8a
8FL	6_	8FL	8aa	8dd
16GL	.	16GL	8aaJ	8ddJ
16FJJ	.	16FJJ	.	.
8EL	7_	8EL	8ggL	8ddL
8EJ	.	8EJ	8ggJ	8g
8EL	6_	8EL	8ggL	8cc
16FL	.	16FL	(16aaL	8ccJ
16EJJ	.	16EJJ	16ggJJ)	.
=	=	=	=	=
8DL	7_	8DL	8ffL	8ccL
16EL	.	16EL	8ffJ	8bJ
16FJJ	.	16FJJ	.	.
8GL	7_	8GL	8ffL	8bL
8GGJ	.	8GGJ	(16ggL	16aL
.	.	.	16ffJJ)	16bJJ
8CL	.	8CL	8eeL	4.cc
8C	.	8C	8gg	.
8E	6	8E	8gg	.
8CJ	.	8CJ	8ggJ	8gg
=	=	=	=	=
8FL	7_	8FL	8ggL	8aaL
8F	.	8F	8cc	8aaJ
8A	6	8A	8ff	8aaL
8FJ	.	8FJ	8ffJ	(16ggL
.	.	.	.	16aaJJ)
4G	7	4G	8ffL	8bbL
.	.	.	(16ggL	8ggJ
.	.	.	16ffJJ)	.
8r	.	8r	8eeL	8r
8E	6	8E	8gJ	8ccc
=	=	=	=	=
8FL	.	8FL	8aL	8aaL
8G	.	8G	8b	8gg
8A	6	8A	8cc	8ff
8EJ	6	8EJ	8ccJ	8eeJ
8FL	6 5	8FL	4.cc	2dd
8D	.	8D	.	.
8G	.	8G	.	.
8GGJ	.	8GGJ	8b	.
=	=	=	=	=
8CL	.	8CL	4cc	8ccL
8cJ	.	8cJ	.	8eeJ
8cL	.	8cL	4.r	8eeL
16BL	.	16BL	.	(16ddL
16AJJ	.	16AJJ	.	16ccJJ)
8BL	6	8BL	.	8ddL
8B	.	8B	8ddL	8gJ
8B	.	8B	8dd	[4gg
8c#XJ	.	8c#XJ	8eeJ	.
=	=	=	=	=
8dL	4_	8dL	4a	8ggL]
8dJ	.	8dJ	.	8ffJ
8dL	3	8dL	4.r	8ffL
16cniL	.	16cniL	.	(16eeL
16BJJ	.	16BJJ	.	16ddJJ)
8cL	6	8cL	.	8eeL
8c	.	8c	8eeL	8aJ
8c	.	8c	8ee	[4aa
8dJ	.	8dJ	8ffJ	.
=	=	=	=	=
8eL	5 4	8eL	8bL	8aaL]
8e	3	8e	8bbJ	8ggJ
8e	.	8e	8bbL	8ggL
8AJ	#6\	8AJ	(16aaL	(16ff#XL
.	.	.	16ggJJ)	16eeJJ)
8BL	#	8BL	4.ff#X	8dd#XL
8B	.	8B	.	8bJ
8B	.	8B	.	[4bb
8BJ	.	8BJ	(16ggLL	.
.	.	.	16ff#JJ)	.
=	=	=	=	=
8cL	7	8cL	4.ee	8bbL]
8cJ	.	8cJ	.	8eeJ
8cL	6	8cL	.	4.aa
16dL	.	16dL	16ff#XLL	.
16cJJ	.	16cJJ	16eeJJ	.
8BL	7 #	8BL	8dd#XL	.
8E	.	8E	8bbJ	8gg
8G	6	8G	8bbL	8ggL
8AJ	.	8AJ	(16aaL	(16ff#XL
.	.	.	16ggJJ)	16eeJJ)
=	=	=	=	=
8BL	#	8BL	8ff#XL	8dd#XL
8A	7 5	8A	8ggJ	8eeJ
8B	5 4	8B	8.ff#L	8.eeL
8BBJ	#	8BBJ	.	.
.	.	.	16ff#Jk	16dd#Jk
4E	.	4E	4ee	8eeL
.	.	.	.	8bb
4r	.	4r	4r	8bb
.	.	.	.	8bbJ
=	=	=	=	=
1r	.	1r	2r	8cccL
.	.	.	.	8cccJ
.	.	.	.	8cccL
.	.	.	.	(16dddniL
.	.	.	.	16cccJJ)
.	.	.	8r	8bbL
.	.	.	8eeL	8gg#X
.	.	.	8ee	8gg#
.	.	.	8eeJ	8gg#J
=	=	=	=	=
2r	.	2r	8ffL	8aaL
.	.	.	8ffJ	8aaJ
.	.	.	8ffL	8aaL
.	.	.	(16ggL	(16bbL
.	.	.	16ffJJ)	16aaJJ)
8r	.	8r	8eeL	8gg#XL
8EL	#	8EL	8g#X	8ee
8E	.	8E	8g#	8ee
8EJ	.	8EJ	8g#J	8eeJ
=	=	=	=	=
8FL	7	8FL	8aL	8eeL
8FJ	.	8FJ	8aJ	8aJ
8FL	6	8FL	8aL	4.dd
16GL	.	16GL	(16bL	.
16FJJ	.	16FJJ	16aJJ)	.
8EL	7 #	8EL	8g#XL	.
8AA	.	8AA	8eeJ	8cc
8A	.	8A	8eeL	8ccL
8AJ	.	8AJ	(16ddL	(16bL
.	.	.	16ccJJ)	16aJJ)
=	=	=	=	=
4A	4 2	4A	8ddL	4b
.	.	.	8ddJ	.
4G#X	5	4G#X	8ddL	4.b
.	.	.	(16eeL	.
.	.	.	16ddJJ)	.
8AL	9	8AL	4.cc	.
8A	.	8A	.	8e
8c	6	8c	.	[4a
8AJ	.	8AJ	(16ddLL	.
.	.	.	16ccJJ)	.
=	=	=	=	=
8eL	5 4	8eL	4.b	4a]
8E	.	8E	.	.
8Gni	6	8Gni	.	4.g
8EJ	.	8EJ	8b	.
4.AA	7	8AAL	8ccL	.
.	.	8BB	8bJ	8gL
.	#6\	8C	[4a	8f#X
8AA	5	8AAJ	.	8eJ
=	=	=	=	=
8BBL	7 #	8BBL	4a]	8d#XL
8B	.	8B	.	8BJ
8c	5	8c	4g	2e
8GJ	.	8GJ	.	.
8AL	6 5	8AL	2f#X	.
8F#X	.	8F#X	.	.
8B	#	8B	.	4d#
8BBJ	.	8BBJ	.	.
=	=	=	=	=
8EL	-	8EL	4e	8r
8e	#	8e	.	8eeL
8e	.	8e	4.r	8ee
8dJ	.	8dJ	.	8eeJ
8c#XL	6	8c#XL	.	8aaL
8A	.	8A	8cc#XL	8aaJ
8B	7 3	8B	8dd	8aaL
8c#J	5 3	8c#J	8eeJ	(16ggL
.	.	.	.	16aaJJ)
=	=	=	=	=
8dL	-	8dL	4a	8ffL
8dJ	.	8dJ	.	8ffJ
8dL	.	8dL	4.r	8ffL
16cniL	.	16cniL	.	(16eeL
16dJJ	.	16dJJ	.	16ffJJ)
8BL	6	8BL	.	8ggL
8G	.	8G	8bL	8gg
8A	7	8A	8ccni	8gg
8BJ	.	8BJ	8ddJ	8ffJ
=	=	=	=	=
8cL	5	8cL	4g	8eeL
8cJ	.	8cJ	.	8eeJ
8cL	.	8cL	4.r	8eeL
16BL	.	16BL	.	(16ddL
16AJJ	.	16AJJ	.	16ccJJ)
8G#XL	6	8G#XL	.	8bL
8E	6 #	8E	8g#XL	8cc
8F#X	6	8F#X	8a	8dd
8G#J	6	8G#J	8bJ	8eeJ
=	=	=	=	=
8AL	5	8AL	4.e	8ccL
8AJ	.	8AJ	.	8aJ
8AL	6	8AL	.	4.ff
16BL	.	16BL	8cc	.
16AJJ	.	16AJJ	.	.
8GniL	7	8GniL	4.b	.
8GJ	.	8GJ	.	(16eeLL
.	.	.	.	16ddJJ)
8GL	6	8GL	.	[4ee
16AL	.	16AL	(16ccLL	.
16GJJ	.	16GJJ	16bJJ)	.
=	=	=	=	=
8FL	7	8FL	4.a	8eeL]
8FJ	.	8FJ	.	(16ddL
.	.	.	.	16ccJJ)
8FL	6	8FL	.	4dd
16GL	.	16GL	8aa	.
16FJJ	.	16FJJ	.	.
4E	#	4E	8gg#XL	8eeL
.	.	.	8e	8g#X
[4e	#	[4e	8e	8g#
.	.	.	8eJ	8g#J
=	=	=	=	=
4e]	4 #2|	4e]	8f#XL	8aL
.	.	.	8f#J	8a
2d	6	2d	8f#L	8b
.	.	.	16eL	8bJ
.	.	.	16f#JJ	.
.	#4| 2	.	8g#XL	4e
.	.	.	8eJ	.
4c	6	4c	[4a	4ee
=	=	=	=	=
4B	7	4B	4a]	4.dd
4E	7 #	4E	4g#X	.
.	.	.	.	(16ccLL
.	.	.	.	16bJJ)
8r	.	8r	8r	8ccL
8AL	5	8AL	8ccL	8aJ
8A	6	8A	8cc	[4ff
8AJ	.	8AJ	8ccJ	.
=	=	=	=	=
8BL	5	8BL	8ddL	8ffL]
8BJ	.	8BJ	8ddJ	8ddJ
8BL	6	8BL	8ddL	4.gg
16AL	.	16AL	(16ccL	.
16GJJ	.	16GJJ	16bJJ)	.
4.c	5	4.c	4.ee	.
.	.	.	.	8ee
.	6	.	.	[4aa
8A	.	8A	8ee	.
=	=	=	=	=
8dL	#	8dL	8ff#XL	8aaL]
8dJ	.	8dJ	8ff#J	8ff#XJ
8dL	6	8dL	8ff#L	4.bb
16cL	.	16cL	(16eeL	.
16BJJ	.	16BJJ	16ff#JJ)	.
4.e	5 #	4.e	4.gg#X	.
.	.	.	.	8gg#X
.	6	.	.	[4ccc
8c	.	8c	8gg#	.
=	=	=	=	=
8fL	5_	8fL	8aaL	8cccL]
8f	.	8f	8aaJ	8aaJ
8f	6_	8f	8aaL	4ddd
8fJ	.	8fJ	(16gg#XL	.
.	.	.	16aaJJ)	.
8eL	#	8eL	8bbL	8r
8E	#	8E	8g#X	8eeL
8E	.	8E	8g#	8ee
8EJ	.	8EJ	8g#J	8eeJ
=	=	=	=	=
8FL	7_	8FL	8aL	8eeL
8FJ	.	8FJ	8aJ	8aJ
8FL	6_	8FL	8aL	4.dd
16GL	.	16GL	(16bL	.
16FJJ	.	16FJJ	16aJJ)	.
8EL	7 #	8EL	8g#XL	.
8AAJ	.	8AAJ	8eJ	(16eeLL
.	.	.	.	16ddJJ)
[4A	.	[4A	8r	8ccL
.	.	.	8cc	(16bL
.	.	.	.	16aJJ)
=	=	=	=	=
8AL]	4 2	8AL]	4dd	8bL
8GJ	.	8GJ	.	8eJ
8GL	6	8GL	8r	4.ee
16FL	.	16FL	8ee	.
16EJJ	.	16EJJ	.	.
8FL	7	8FL	4.a	.
8FJ	.	8FJ	.	8a
8FL	6_	8FL	.	[4dd
16EL	.	16EL	8ff	.
16DJJ	.	16DJJ	.	.
=	=	=	=	=
4E	7 #	4E	4g#X	4dd]
4AA'	.	4AA'	4a'	4cc'
4E'	#	4E'	4g#'	4b'
4AA'	.	4AA'	4cc'	4a'
=	=	=	=	=
4E'	#	4E'	4b'	4g#X'
4r	.	4r	4r	4r
2r;	.	2r;	2r;	2r;
=:|!	=:|!	=:|!	=:|!	=:|!
*-	*-	*-	*-	*-
!!!system-decoration: [{s1,s2},s3,s4]
!!!YEM: CC BY-NC-SA 4.0; CCARH; DCML
!!!RDF**kern: i = editorial accidental